localPackages/DesignSystem/Sources/DesignSystem/Resources/Assets.xcassets/IconSet/ic-locks-filled.imageset/ic-locks-filled.svg

<svg width="24" height="24" viewBox="0 0 24 24" fill="none" xmlns="http://www.w3.org/2000/svg">
<g id="ic-locks-filled">
<g id="Icon">
<path fill-rule="evenodd" clip-rule="evenodd" d="M9 6.00127C8.1263 6.00734 7.62655 6.04243 7.22852 6.24523C6.80516 6.46095 6.46095 6.80516 6.24524 7.22852C6 7.70982 6 8.33988 6 9.6V15.9C6 17.1601 6 17.7902 6.24524 18.2715C6.46095 18.6948 6.80516 19.039 7.22852 19.2548C7.70982 19.5 8.33988 19.5 9.6 19.5H17.4C18.6601 19.5 19.2902 19.5 19.7715 19.2548C20.1948 19.039 20.539 18.6948 20.7548 18.2715C21 17.7902 21 17.1601 21 15.9V9.6C21 8.33988 21 7.70982 20.7548 7.22852C20.539 6.80516 20.1948 6.46095 19.7715 6.24523C19.3735 6.04243 18.8737 6.00734 18 6.00127C18 3.51599 15.9853 1.5 13.5 1.5C11.0147 1.5 9 3.51599 9 6.00127ZM10.2857 6H16.7143C16.7143 4.2248 15.2752 2.78571 13.5 2.78571C11.7248 2.78571 10.2857 4.2248 10.2857 6ZM14.206 12.5738C14.6785 12.3213 15 11.8232 15 11.25C15 10.4216 14.3284 9.75 13.5 9.75C12.6716 9.75 12 10.4216 12 11.25C12 11.8232 12.3215 12.3213 12.794 12.5738L12.1398 15.1909C12.0688 15.4749 12.2836 15.75 12.5763 15.75H14.4237C14.7164 15.75 14.9312 15.4749 14.8602 15.1909L14.206 12.5738Z" fill="#0F0F0F"/>
<path d="M4.5 9.75C4.04422 10.0918 3.66995 10.5349 3.40873 11.0475C3 11.8497 3 12.8998 3 15V16.5C3 18.6002 3 19.6503 3.40873 20.4525C3.76825 21.1581 4.34193 21.7318 5.04754 22.0913C5.8497 22.5 6.8998 22.5 9 22.5H12C14.1002 22.5 15.1503 22.5 15.9525 22.0913C16.4651 21.8301 16.9082 21.4558 17.25 21H9.3C7.61984 21 6.77977 21 6.13803 20.673C5.57354 20.3854 5.1146 19.9265 4.82698 19.362C4.5 18.7202 4.5 17.8802 4.5 16.2V9.75Z" fill="#0F0F0F"/>
</g>
</g>
</svg>

<svg xmlns="http://www.w3.org/2000/svg" width="24" height="24" viewBox="0 0 24 24">
  <g class="ic-locks-filled">
    <g class="Icon">
      <path fill-rule="evenodd" d="M9 6.001c-.874.006-1.373.041-1.771.244a2.25 2.25 0 0 0-.984.984C6 7.709 6 8.339 6 9.6v6.3c0 1.26 0 1.89.245 2.371.216.424.56.768.984.984.48.245 1.11.245 2.371.245h7.8c1.26 0 1.89 0 2.372-.245.423-.216.767-.56.983-.983C21 17.79 21 17.16 21 15.9V9.6c0-1.26 0-1.89-.245-2.371a2.25 2.25 0 0 0-.983-.984c-.398-.203-.898-.238-1.772-.244a4.501 4.501 0 1 0-9 0ZM10.286 6h6.428a3.214 3.214 0 0 0-6.428 0Zm3.92 6.574a1.5 1.5 0 1 0-1.412 0l-.654 2.617a.45.45 0 0 0 .436.559h1.848a.45.45 0 0 0 .436-.56l-.654-2.616Z"/>
      <path d="M4.5 9.75a3.75 3.75 0 0 0-1.091 1.297C3 11.85 3 12.9 3 15v1.5c0 2.1 0 3.15.409 3.953a3.75 3.75 0 0 0 1.639 1.638C5.85 22.5 6.9 22.5 9 22.5h3c2.1 0 3.15 0 3.953-.409A3.75 3.75 0 0 0 17.25 21H9.3c-1.68 0-2.52 0-3.162-.327a3 3 0 0 1-1.311-1.311C4.5 18.72 4.5 17.88 4.5 16.2V9.75Z"/>
    </g>
  </g>
</svg>
